assets/img/Thumbnail.svg

<svg width="1200" height="630" fill="none" xmlns="http://www.w3.org/2000/svg"><path fill="#fff" d="M0 0h1200v630H0z"/><path d="M290.126 364.674h22.782c26.992 0 49.031-15.601 49.031-50.765 0-35.163-22.039-51.012-49.031-51.012h-22.782v101.777Zm24.268 36.897H251V226h63.642c52.745 0 88.157 33.678 88.157 87.909 0 54.232-35.412 87.662-88.405 87.662ZM542.113 401.571H430.679V226h111.186v36.897h-72.061v33.431h65.375v34.42h-65.375v33.678h72.309v37.145ZM645.101 349.569 686.951 226h41.602l-64.137 175.571h-40.364L559.668 226h43.088l42.345 123.569ZM714.734 378.294c0-13.868 11.391-25.259 25.259-25.259 13.867 0 25.506 11.391 25.506 25.259 0 13.62-11.639 25.506-25.506 25.506-13.868 0-25.259-11.886-25.259-25.506Z" fill="#000"/><path d="m947.934 226-56.46 88.157 56.955 87.414h-47.545l-34.668-56.955-34.421 56.955h-46.06l56.708-87.909L785.735 226h47.05l34.669 56.955L902.122 226h45.812Z" fill="#7000FF"/></svg>

<svg width="1200" height="630" viewBox="0 0 1200 630" fill="none" xmlns="http://www.w3.org/2000/svg">
<rect width="1200" height="630" fill="white"/>
<path d="M290.126 364.674H312.908C339.9 364.674 361.939 349.073 361.939 313.909C361.939 278.746 339.9 262.897 312.908 262.897H290.126V364.674ZM314.394 401.571H251V226H314.642C367.387 226 402.799 259.678 402.799 313.909C402.799 368.141 367.387 401.571 314.394 401.571Z" fill="black"/>
<path d="M542.113 401.571H430.679V226H541.865V262.897H469.804V296.328H535.179V330.748H469.804V364.426H542.113V401.571Z" fill="black"/>
<path d="M645.101 349.569L686.951 226H728.553L664.416 401.571H624.052L559.668 226H602.756L645.101 349.569Z" fill="black"/>
<path d="M714.734 378.294C714.734 364.426 726.125 353.035 739.993 353.035C753.86 353.035 765.499 364.426 765.499 378.294C765.499 391.914 753.86 403.8 739.993 403.8C726.125 403.8 714.734 391.914 714.734 378.294Z" fill="black"/>
<path d="M947.934 226L891.474 314.157L948.429 401.571H900.884L866.216 344.616L831.795 401.571H785.735L842.443 313.662L785.735 226H832.785L867.454 282.955L902.122 226H947.934Z" fill="#7000FF"/>
</svg>
